X:1
T:It's Better Than That
M:4/4
L:1/8
K:C
 EF ^F| GE C A2 GE C| B,2 C2 ^C D3| FD B, G2 FD B,| E2 F2 ^F G3| AA _B A2 GE E|\
 F2 E2 D2 z D| ^GG B G2 FD B,| E2 _E2 _D2 z2| z2 G2 GF E D-| D2 z2 z4|\
 z2 A2 AG FD| E2 F2 ^F G3| z2 c2 cB A2| z2 B2 BA G2| z2 F2 FE D C-|\
 C2 z2 z||
